X:64
T: Schlangenkoechin
N: D0067
O: Europa, Mitteleuropa, Lothringen, Hambach
N: Inzipit = Variante zum Lied
R: Ballade
M: 3/4
L: 1/8
K: F
AB | c2A2cd | B2G2
BB | A2F2A2 | G4
C2 | F2F2G2 | A2A2
B2 | c2B2e2 | F4

